X:1
T:Wetterling, 87.87 D
T:Wetterling, 87.87 D
T:Hampus Wetterling (1830–1870)
T:Public Domain Courtesy of the Cyber Hymnal™
C:Hampus Wetterling (1830–1870)
Z:Public Domain
Z:Courtesy of the Cyber Hymnal™
%%score ( 1 2 ) ( 3 4 )
L:1/8
Q:1/4=102
M:3/4
K:F
V:1 treble 
V:2 treble 
V:3 bass 
V:4 bass 
V:1
 CC | [CF]3 [CF] [CF][CF] | (FE) [CE]2 CC | [EG]3 [EG] [EG][EG] | [FA]4 [FA][FA] | %5
 [Fc]3 [FA] [FA][FA] | [FB]2 [FA]2 [FA][FA] | [DA]3 [DG] [CF][CE] | [CF]2 z2 CC | %9
 [EB]3 [FA] [EG]F | (FE) [CE]2 CC | [EB]3 [EB] [Ec][EG] | [FA]2 z2 [FA][FA] | [EA]3 E [EA][EG] | %14
 ([EG][DF]) [DF]2 [DF][DF] | [DG]3 [CE] [CE][CE] | [CF]4 |] %17
V:2
 CC | x6 | C2 x C C x | x6 | x6 | x6 | x6 | x6 | x4 CC | x5 F | C2 x C C x | x6 | x6 | x3 E x2 | %14
 x6 | x6 | x4 |] %17
V:3
 [F,A,][F,A,] | [F,A,]3 [F,A,] [F,A,][F,A,] | (A,G,) [C,G,]2 [C,C][C,C] | [C,C]3 [C,C] [C,C][C,C] | %4
 [F,C]4 [F,C][F,C] | [A,C]3 [F,C] [F,C][F,C] | [F,D]2 [F,C]2 [F,C][F,C] | %7
 [B,,B,]3 [B,,B,] [C,A,][C,G,] | [F,A,]2 z2 [C,C][C,C] | [C,G,]3 [C,A,] [C,B,][C,A,] | %10
 (A,G,) [C,G,]2 [C,C][C,C] | [C,G,]3 [C,G,] [C,G,][C,C] | [F,C]2 z2 [F,C][F,C] | %13
 [A,^C]3 [A,C] [A,C][A,C] | [D,A,]2 [D,A,]2 [D,A,][D,A,] | [B,,B,]3 [C,B,] [C,B,][C,B,] | %16
 [F,A,]4 |] %17
V:4
 x2 | x6 | C,2 x4 | x6 | x6 | x6 | x6 | x6 | x6 | x6 | C,2 x4 | x6 | x6 | x6 | x6 | x6 | x4 |] %17

